img/how-we-are-working-image-five.svg

<svg xmlns="http://www.w3.org/2000/svg" width="3.457cm" height="2.858cm">
  <path fill="#F49E9C" fill-rule="evenodd" d="M95.796 43.377c4.269 4.801 2.02 12.469-4.151 14.164 1.912 4.843-.832 10.227-5.742 11.576.391.992.609 2.07.609 3.2 0 4.788-3.864 8.683-8.613 8.683H64.476c-10.4 0-20.392-3.087-30.033-5.789h-3.356C29.901 78.58 26.71 81 22.967 81H2.871c-1.586 0-2.872-1.296-2.872-2.894V26.012c0-1.598 1.286-2.894 2.872-2.894h20.097c3.743 0 6.934 2.42 8.119 5.789l8.607-.001c10.965-7.624 12.516-14.86 13.654-20.172.474-2.214.883-4.127 1.906-5.696C56.567 1.022 58.641 0 61.418 0h.041c4.066.015 7.637 2.211 9.552 5.875 1.64 3.138 2.026 7.185 1.116 11.702-.715 3.546-2.201 7.341-4.433 11.329h21.688c7.426 0 11.371 8.895 6.414 14.471zm-69.958-11.55V31.8c0-1.595-1.288-2.894-2.871-2.894H5.741v46.305h17.226c1.583 0 2.871-1.298 2.871-2.893V31.827zm49.189 8.656h14.355c1.584 0 2.872-1.298 2.872-2.894s-1.288-2.894-2.872-2.894H62.526c-2.302 0-3.668-2.604-2.374-4.522 8.924-13.228 6.679-19.877 5.779-21.599-.935-1.789-2.531-2.779-4.493-2.786-1.434-.004-1.584-.005-2.478 4.168-1.213 5.665-3.244 15.148-16.791 24.252a2.858 2.858 0 0 1-1.578.486s-4.615-.038-9.01-.038v34.806c3.586 0 3.533-.07 4.02.067 9.421 2.632 19.184 5.682 28.875 5.682h13.423c1.582 0 2.871-1.298 2.871-2.894 0-1.595-1.289-2.894-2.871-2.894h-2.872c-1.585 0-2.87-1.295-2.87-2.894 0-1.598 1.285-2.894 2.87-2.894h8.614c1.583 0 2.871-1.298 2.871-2.894s-1.288-2.894-2.871-2.894h-8.614c-1.585 0-2.87-1.296-2.87-2.894s1.285-2.894 2.87-2.894h14.355c1.584 0 2.872-1.298 2.872-2.894s-1.288-2.894-2.872-2.894H75.027c-1.585 0-2.87-1.296-2.87-2.894 0-1.599 1.285-2.894 2.87-2.894zM17.226 69.424c-1.587 0-2.872-1.296-2.872-2.894s1.285-2.894 2.872-2.894c1.585 0 2.87 1.296 2.87 2.894s-1.285 2.894-2.87 2.894z"/>
</svg>

<svg
 xmlns="http://www.w3.org/2000/svg"
 xmlns:xlink="http://www.w3.org/1999/xlink"
 width="3.457cm" height="2.858cm">
<path fill-rule="evenodd"  fill="rgb(244, 158, 156)"
 d="M95.796,43.377 C100.065,48.178 97.816,55.846 91.645,57.541 C93.557,62.384 90.813,67.768 85.903,69.117 C86.294,70.109 86.512,71.187 86.512,72.317 C86.512,77.105 82.648,81.000 77.899,81.000 L64.476,81.000 C54.076,81.000 44.084,77.913 34.443,75.211 L31.087,75.211 C29.901,78.580 26.710,81.000 22.967,81.000 L2.871,81.000 C1.285,81.000 -0.001,79.704 -0.001,78.106 L-0.001,26.012 C-0.001,24.414 1.285,23.118 2.871,23.118 L22.968,23.118 C26.711,23.118 29.902,25.538 31.087,28.907 C33.736,28.907 37.892,28.907 39.694,28.906 C50.659,21.282 52.210,14.046 53.348,8.734 C53.822,6.520 54.231,4.607 55.254,3.038 C56.567,1.022 58.641,-0.000 61.418,-0.000 C61.432,-0.000 61.445,-0.000 61.459,-0.000 C65.525,0.015 69.096,2.211 71.011,5.875 C72.651,9.013 73.037,13.060 72.127,17.577 C71.412,21.123 69.926,24.918 67.694,28.906 L89.382,28.906 C96.808,28.906 100.753,37.801 95.796,43.377 ZM25.838,31.827 C25.838,31.826 25.838,31.825 25.838,31.824 L25.838,31.800 C25.838,30.205 24.550,28.906 22.967,28.906 L5.741,28.906 L5.741,75.211 L22.967,75.211 C24.550,75.211 25.838,73.913 25.838,72.318 L25.838,31.827 ZM75.027,40.483 L89.382,40.483 C90.966,40.483 92.254,39.185 92.254,37.589 C92.254,35.993 90.966,34.695 89.382,34.695 L62.526,34.695 C60.224,34.695 58.858,32.091 60.152,30.173 C69.076,16.945 66.831,10.296 65.931,8.574 C64.996,6.785 63.400,5.795 61.438,5.788 C60.004,5.784 59.854,5.783 58.960,9.956 C57.747,15.621 55.716,25.104 42.169,34.208 C41.701,34.522 41.153,34.691 40.591,34.694 C40.591,34.694 35.976,34.656 31.581,34.656 L31.581,69.462 C35.167,69.462 35.114,69.392 35.601,69.529 C45.022,72.161 54.785,75.211 64.476,75.211 L77.899,75.211 C79.481,75.211 80.770,73.913 80.770,72.317 C80.770,70.722 79.481,69.423 77.899,69.423 L75.027,69.423 C73.442,69.423 72.157,68.128 72.157,66.529 C72.157,64.931 73.442,63.635 75.027,63.635 L83.641,63.635 C85.224,63.635 86.512,62.337 86.512,60.741 C86.512,59.145 85.224,57.847 83.641,57.847 L75.027,57.847 C73.442,57.847 72.157,56.551 72.157,54.953 C72.157,53.355 73.442,52.059 75.027,52.059 C76.361,52.059 88.080,52.059 89.382,52.059 C90.966,52.059 92.254,50.761 92.254,49.165 C92.254,47.569 90.966,46.271 89.382,46.271 L75.027,46.271 C73.442,46.271 72.157,44.975 72.157,43.377 C72.157,41.778 73.442,40.483 75.027,40.483 ZM17.226,69.424 C15.639,69.424 14.354,68.128 14.354,66.530 C14.354,64.932 15.639,63.636 17.226,63.636 C18.811,63.636 20.096,64.932 20.096,66.530 C20.096,68.128 18.811,69.424 17.226,69.424 Z"/>
</svg>
